frontend/public/svg/e-commerce/qr.svg

<svg width="160" height="87" viewBox="0 0 160 87" fill="none" xmlns="http://www.w3.org/2000/svg">
<path d="M99.3488 65.2039C99.3488 66.5507 99.3751 67.8948 99.3436 69.2436C99.2779 72.098 98.6295 73.1259 96.8495 73.2912C93.6209 73.5899 91.9742 72.6146 91.5679 69.6466C90.9024 65.2188 90.4646 60.7597 90.2552 56.287C90.0334 49.6777 90.2697 43.0538 90.1548 36.4392C90.0616 31.0638 89.7033 25.6929 89.5405 20.3182C89.4742 18.7483 89.5792 17.1757 89.8542 15.6286C90.1305 14.1939 90.7009 12.8163 92.6318 12.8065C94.5753 12.7947 95.5237 13.8001 95.7606 15.5998C96.2857 19.5969 96.9971 23.5849 97.2446 27.6004C98.0151 40.1306 98.6058 52.6724 99.2661 65.2085L99.3488 65.2039Z" fill="black"/>
<path d="M21.4103 17.5643C21.3414 16.3356 21.5179 15.1054 21.9295 13.9458C22.4454 12.7808 23.3537 11.2292 24.8876 11.7537C26.0748 12.2492 27.0217 13.1887 27.5267 14.372C28.0415 15.9749 28.2965 17.6495 28.2822 19.333C28.4466 22.9157 28.5313 26.5024 28.5362 30.093C28.5631 42.3232 28.544 54.5533 28.5421 66.7822C28.5421 67.6801 28.5696 68.5793 28.5283 69.4732C28.4069 72.0861 27.5714 73.2616 25.7763 73.4112C23.6189 73.5871 21.367 72.0775 20.9305 70.0475C20.7839 69.1621 20.73 68.2642 20.7697 67.3677C20.7586 59.0677 21.3683 25.865 21.4103 17.5643Z" fill="black"/>
<path d="M59.6105 74.1368C58.8105 74.1413 58.0401 73.8348 57.4617 73.2822C56.8833 72.7296 56.5423 71.9735 56.5107 71.174C56.2645 65.1899 56.0407 59.5176 55.7821 53.8468C55.2133 41.3072 54.6239 28.7687 54.014 16.2314C53.817 12.2697 55.093 10.837 58.4449 11.5379C60.1967 11.9042 61.338 13.5072 61.4955 16.2218C61.743 20.4748 61.9025 24.7338 62.0239 28.9928C62.4177 42.7759 62.7649 56.5653 63.1587 70.3517C63.2499 73.5487 62.7754 74.1151 59.6368 74.1361L59.6105 74.1368Z" fill="black"/>
<path d="M37.9698 73.4542C37.3373 73.4614 36.7232 73.2415 36.2383 72.8352C35.7535 72.429 35.4299 71.8625 35.3261 71.2384C35.3038 71.0874 35.2868 70.9358 35.2789 70.7842C34.681 60.1451 34.0226 49.5081 33.5842 38.8623C33.2652 31.1273 33.239 23.3804 33.1117 15.6382C33.0887 14.2369 32.6371 12.5647 34.5924 11.9839C35.8289 11.6163 37.5459 13.1219 37.8412 15.1953C38.2777 18.2991 38.4976 21.4417 38.6446 24.5757C39.1506 35.4453 39.5772 46.3182 40.0517 57.1885C40.2375 61.4461 40.4974 65.6999 40.6648 69.9578C40.6766 70.2663 40.6706 70.5748 40.6536 70.8892C40.6202 71.579 40.323 72.2301 39.8237 72.7072C39.3243 73.1844 38.6607 73.4522 37.9698 73.4542Z" fill="black"/>
<path d="M123.449 73.2861C122.712 73.2842 122.005 73.0013 121.47 72.4953C120.936 71.9886 120.614 71.2981 120.573 70.563C120.552 70.2276 120.541 69.8962 120.542 69.5647C120.593 54.7506 120.667 39.9368 120.761 25.1233C120.784 22.2111 121.052 19.2989 121.26 16.39C121.315 15.6188 121.334 14.6672 121.777 14.1422C122.422 13.3782 123.418 12.5241 124.301 12.4814C124.897 12.4532 125.692 13.6812 126.138 14.4905C126.432 15.0201 126.302 15.8031 126.303 16.4765C126.32 34.3236 126.33 52.1707 126.333 70.0176C126.333 70.1974 126.328 70.3773 126.321 70.5591C126.285 71.2961 125.966 71.9905 125.432 72.4979C124.897 73.0059 124.186 73.2881 123.449 73.2861Z" fill="black"/>
<path d="M47.9347 73.5067C47.3289 73.5067 46.7457 73.2756 46.3038 72.8608C45.8618 72.4467 45.594 71.8796 45.5549 71.2751C44.2809 52.0005 42.3854 32.861 43.0523 13.5135C43.0714 13.0081 43.2858 12.5295 43.6502 12.1787C44.0147 11.828 44.501 11.6321 45.0068 11.6323C45.4808 11.632 45.9387 11.8043 46.2947 12.1172C46.6508 12.4301 46.8805 12.8624 46.9411 13.3324C48.1054 22.2862 50.3448 60.8808 50.3238 71.1183C50.3235 71.7516 50.0716 72.3594 49.6236 72.807C49.1756 73.2546 48.5682 73.5067 47.9347 73.5067Z" fill="black"/>
<path d="M76.2051 74.082C75.6709 74.0807 75.153 73.8982 74.7356 73.5648C74.3181 73.2307 74.0267 72.7654 73.9079 72.2449C73.734 71.5511 73.6185 70.8449 73.5627 70.1321C73.205 64.094 72.7515 58.056 72.6819 52.0177C72.5447 40.138 72.632 28.258 72.6484 16.3783C72.6484 15.911 72.6714 15.4438 72.7036 14.9811C72.7206 14.6259 72.8073 14.2777 72.9589 13.9562C73.1105 13.6346 73.3244 13.3462 73.5876 13.1072C73.8508 12.8683 74.1587 12.6833 74.4934 12.5634C74.8281 12.4435 75.1832 12.3909 75.5383 12.4083C76.6829 12.5021 76.9487 13.3506 77.0426 15.4496C77.4686 24.9586 77.8617 34.4697 78.1328 43.984C78.3881 52.9417 78.4839 61.902 78.6139 70.8653C78.6165 71.2407 78.5942 71.6168 78.5482 71.9896C78.4819 72.5652 78.2069 73.0962 77.7744 73.4821C77.3425 73.868 76.784 74.0813 76.2051 74.082Z" fill="black"/>
<path d="M113.489 73.4422C112.894 73.4416 112.323 73.2138 111.891 72.8062C111.458 72.398 111.198 71.8408 111.163 71.2474C110.97 68.0734 110.753 64.9217 110.676 61.7661C110.38 49.7677 110.132 37.7683 109.932 25.7678C109.863 21.8482 109.849 17.9233 109.997 14.0076C110.044 13.5425 110.193 13.0937 110.436 12.6939C110.678 12.2941 111.006 11.9534 111.397 11.6966C112.876 10.9707 113.961 11.9268 114.11 13.9726C114.403 17.9967 114.701 22.0247 114.824 26.0559C115.241 39.5064 115.612 52.9582 115.936 66.4115C115.976 68.0025 115.896 69.5961 115.817 71.2225C115.789 71.8204 115.531 72.3855 115.097 72.7984C114.664 73.2119 114.087 73.4422 113.489 73.4422Z" fill="black"/>
<path d="M12.857 72.7603C12.214 72.7617 11.5931 72.5254 11.1137 72.0968C10.6342 71.6682 10.3299 71.0775 10.2592 70.4389C10.2072 69.9847 10.1812 69.5285 10.1812 69.0717C10.3164 51.0314 10.4712 32.9917 10.6458 14.9525C10.6497 14.5049 10.5145 13.9482 10.7232 13.6319C11.1662 12.9683 11.7734 11.9991 12.3641 11.9663C12.9318 11.9355 14.6613 12.8563 14.7558 13.4712C15.2199 16.5639 14.9829 19.6907 15.0308 22.8116C15.2657 38.1581 15.3793 53.5071 15.5151 68.8558C15.5197 69.331 15.4995 69.8068 15.4686 70.2997C15.4283 70.9653 15.1357 71.5901 14.6504 72.0476C14.1651 72.505 13.5237 72.7597 12.857 72.7603Z" fill="black"/>
<path d="M87.8793 69.4883C87.8616 72.659 87.114 73.805 85.3058 73.7098C83.6427 73.6226 83.029 72.5599 82.9568 69.5861C82.6529 57.0501 82.3832 44.5142 82.0379 31.9781C81.8935 26.7202 81.5549 21.4682 81.3987 16.2103C81.3553 14.7578 80.7942 12.8413 83.1051 12.4633C84.5215 12.2316 85.42 13.4643 85.5907 16.1539C86.1807 25.4214 86.717 34.6926 87.1987 43.9675C87.33 46.4209 87.9128 63.4422 87.8793 69.4883Z" fill="black"/>
<path d="M107.068 68.0436C107.035 69.0511 106.914 70.054 106.706 71.0398C106.461 72.3092 105.615 73.2097 104.351 72.8211C103.916 72.6564 103.521 72.3971 103.196 72.0631C102.871 71.729 102.623 71.3273 102.47 70.8876C102.122 69.1253 101.943 67.3335 101.937 65.5378C101.58 56.0047 101.245 46.4708 100.934 36.9355C100.708 30.3188 100.492 23.7019 100.287 17.0852C100.166 16.1954 100.239 15.2901 100.503 14.4316C100.676 14.0608 100.931 13.7342 101.248 13.4762C101.566 13.2183 101.938 13.0357 102.336 12.9424C103.009 12.9273 103.906 13.6537 104.324 14.3009C104.71 14.8968 104.645 15.8163 104.687 16.598C105.441 30.6023 107.114 64.904 107.068 68.0436Z" fill="black"/>
<path d="M134.297 71.1987C134.262 71.6234 134.092 72.0257 133.812 72.346C133.532 72.6669 133.156 72.8888 132.741 72.9807C130.375 73.5386 129.504 72.39 129.548 69.3163C129.803 52.0281 129.96 34.7395 130.163 17.4509C130.088 16.2211 130.177 14.9865 130.426 13.7799C130.623 13.0933 131.711 12.0591 132.127 12.1727C132.56 12.3068 132.958 12.5387 133.288 12.8508C133.618 13.163 133.872 13.5469 134.03 13.9728C134.296 15.8608 134.406 17.7676 134.358 19.6738C134.527 32.0221 134.736 44.3706 134.794 56.7196C134.816 61.5411 134.486 66.3641 134.294 71.1856L134.297 71.1987Z" fill="black"/>
<path d="M141.871 41.4506C141.871 50.086 141.856 58.7218 141.88 67.3575C141.887 70.3819 141.381 71.4484 139.703 71.5639C137.859 71.6913 136.923 70.4482 136.918 67.4756C136.89 53.0085 136.9 38.5417 136.946 24.0752C136.96 21.2812 137.329 18.486 137.61 15.6992C137.652 14.8042 137.893 13.9295 138.315 13.1392C138.52 12.8384 138.791 12.5884 139.108 12.4085C139.424 12.2287 139.778 12.1236 140.141 12.1016C140.48 12.2152 140.788 12.4047 141.043 12.6556C141.297 12.9066 141.491 13.2123 141.609 13.5494C141.805 14.4239 141.862 15.3239 141.779 16.2161C141.788 24.6278 141.789 33.0397 141.784 41.4518L141.871 41.4506Z" fill="black"/>
<path d="M69.4776 74.1734C68.9558 74.1734 68.4531 73.9752 68.0724 73.6181C67.6917 73.2617 67.4607 72.7728 67.4266 72.2523C67.3544 71.1365 67.2822 70.026 67.1929 68.9181C66.5418 60.8741 65.7392 52.8379 65.2561 44.7853C64.6792 35.1561 64.3694 25.5111 63.9513 15.8727C63.8235 15.0977 63.8402 14.3057 64.0006 13.5368C64.2412 12.7452 64.7783 12.0773 65.4996 11.6722C66.6606 11.2693 67.3504 12.1554 67.6044 13.2653C67.8388 14.1292 67.9969 15.0115 68.0777 15.9029C68.6264 26.995 69.0471 38.0925 69.7041 49.1793C70.1346 56.4529 70.9039 63.7062 71.4959 70.9698C71.5274 71.3492 71.5353 71.7305 71.5339 72.1289C71.5307 72.6724 71.3128 73.1922 70.9275 73.5755C70.5422 73.9581 70.0211 74.1734 69.4776 74.1734Z" fill="black"/>
<path d="M144.792 16.6127C144.792 16.0516 144.796 15.491 144.801 14.9305C144.812 13.5247 144.92 11.9418 146.728 11.9962C148.549 12.0507 148.479 13.7026 148.516 15.0651C148.979 31.8674 149.438 48.6698 149.895 65.4721C149.931 66.5919 149.875 67.713 149.729 68.8235C149.56 70.0344 148.927 70.9362 147.542 70.929C146.112 70.9211 145.591 69.9681 145.507 68.7342C145.317 65.8257 145.082 62.9143 145.048 60.0047C144.984 53.6166 144.791 24.6876 144.792 16.6127Z" fill="black"/>
<path d="M152.481 75.9637C152.29 72.6525 152.006 69.6557 151.982 66.6569C151.934 64.5454 152.137 62.4361 152.585 60.3724C152.772 59.8826 153.074 59.445 153.467 59.0976C153.859 58.7502 154.33 58.5033 154.839 58.3778C156.209 58.2386 156.349 59.6005 156.49 60.7859C157.055 65.4459 157.789 70.0915 158.314 74.7574C158.858 79.6051 157.453 81.0517 152.684 81.2551C148.776 81.4199 144.874 81.8091 140.974 82.0999C139.97 82.1747 138.968 82.2757 137.964 82.3223C136.742 82.3788 135.642 82.0926 135.502 80.6585C135.371 79.313 136.274 78.5438 137.464 78.3325C141.533 77.6105 145.614 76.9804 149.693 76.3254C150.452 76.2013 151.219 76.1252 152.481 75.9637Z" fill="black"/>
<path d="M6.22697 80.4655C9.59005 80.4655 12.9321 80.4235 16.2722 80.4859C17.7207 80.4209 19.1702 80.5915 20.564 80.9906C21.4035 81.2984 22.4582 82.4857 22.4418 83.2576C22.4247 84.0636 21.3516 85.01 20.524 85.5797C19.9517 85.9735 19.0144 85.9131 18.236 85.9177C14.0952 85.9413 9.953 85.9906 5.81414 85.898C1.86167 85.8094 0.591657 84.5092 0.520773 80.6125C0.459077 77.2573 0.489278 73.8995 0.513562 70.543C0.524064 69.1056 0.316669 67.4425 2.36773 67.1799C3.75457 67.0014 4.6498 68.2301 4.90118 70.5272C5.18012 73.083 5.38162 75.6467 5.66187 78.2025C5.8038 78.9677 5.99252 79.7232 6.22697 80.4655Z" fill="black"/>
<path d="M152.289 5.2085C148.906 5.08183 145.463 4.94597 142.019 4.82586C141.46 4.80551 140.899 4.8147 140.338 4.82586C139.055 4.84489 137.673 4.81694 137.596 3.13278C137.522 1.49981 138.975 1.12546 140.163 1.03685C142.277 0.87933 144.412 1.00888 146.539 1.01282C148.883 1.01741 151.228 1.07842 153.57 1.00032C156.108 0.914993 157.614 1.78784 157.713 4.27207C157.917 9.41118 157.79 14.5641 157.756 19.7117C157.752 20.246 157.613 21.6046 157.269 21.955C156.603 22.6059 155.728 22.9987 154.799 23.0636C154.233 23.1292 153.117 21.9418 152.929 21.1535C152.532 19.3028 152.326 17.4165 152.313 15.5237C152.224 12.2886 152.289 9.05203 152.289 5.2085Z" fill="black"/>
<path d="M6.02159 7.28569C5.61991 11.4003 5.26942 14.9544 4.92878 18.5091C4.8428 19.4024 4.97603 20.3733 4.65968 21.1701L4.65115 21.1915C4.5125 21.4867 4.29612 21.7387 4.02517 21.9202C3.75423 22.1019 3.43896 22.2062 3.11319 22.2222C2.78743 22.2382 2.46346 22.1651 2.17604 22.011C1.88861 21.8568 1.64859 21.6275 1.4817 21.3473C1.46201 21.3138 1.44297 21.2814 1.42459 21.2453C1.20665 20.6071 1.13927 19.9273 1.22771 19.2587C1.26774 15.4448 1.28481 11.6293 1.40886 7.81732C1.50862 4.7378 2.69788 3.21065 5.73738 2.77944C9.94842 2.18151 14.2009 1.8606 18.4402 1.47927C19.214 1.33704 20.0126 1.4243 20.7374 1.73052C21.4639 2.17825 21.9857 2.89342 22.1905 3.72196C22.1569 4.09097 22.0292 4.44514 21.8195 4.7507C21.61 5.05625 21.3255 5.30276 20.9933 5.46696C19.2751 5.92498 17.5212 6.23671 15.7505 6.39891C12.6454 6.74021 9.53105 6.97194 6.02159 7.28569Z" fill="black"/>
</svg>

<svg xmlns="http://www.w3.org/2000/svg" width="160" height="87" fill="none" viewBox="0 0 160 87"><path fill="#000" d="M99.349 65.204c0 1.347.026 2.69-.005 4.04-.066 2.854-.715 3.882-2.494 4.047-3.23.299-4.876-.676-5.282-3.644a131 131 0 0 1-1.313-13.36c-.222-6.61.015-13.233-.1-19.848-.093-5.375-.452-10.746-.615-16.12-.066-1.57.04-3.143.314-4.69.276-1.435.847-2.813 2.778-2.822 1.943-.012 2.892.993 3.129 2.793.525 3.997 1.236 7.985 1.484 12 .77 12.53 1.36 25.072 2.021 37.609zM21.41 17.564a9.3 9.3 0 0 1 .52-3.618c.515-1.165 1.424-2.717 2.958-2.192a4.94 4.94 0 0 1 2.639 2.618 15.8 15.8 0 0 1 .755 4.961q.248 5.375.254 10.76c.027 12.23.008 24.46.006 36.69 0 .897.028 1.796-.014 2.69-.121 2.613-.957 3.789-2.752 3.938-2.157.176-4.409-1.334-4.846-3.364-.146-.885-.2-1.783-.16-2.68-.011-8.3.598-41.502.64-49.803m38.2 56.573a3.086 3.086 0 0 1-3.1-2.963c-.245-5.984-.47-11.656-.728-17.327q-.853-18.81-1.768-37.616c-.197-3.961 1.079-5.394 4.43-4.693 1.753.366 2.894 1.97 3.051 4.684.248 4.253.408 8.512.529 12.77.394 13.784.74 27.573 1.135 41.36.09 3.197-.384 3.763-3.522 3.784zm-21.64-.683a2.65 2.65 0 0 1-2.644-2.216 5 5 0 0 1-.047-.454c-.598-10.639-1.256-21.276-1.695-31.922-.319-7.735-.345-15.482-.472-23.224-.023-1.401-.475-3.073 1.48-3.654 1.237-.368 2.954 1.138 3.25 3.211.436 3.104.656 6.247.803 9.38.506 10.87.932 21.743 1.407 32.613.185 4.258.445 8.512.613 12.77q.016.461-.011.931a2.695 2.695 0 0 1-2.684 2.565m85.479-.168a2.89 2.89 0 0 1-2.876-2.723 15 15 0 0 1-.031-.998q.077-22.221.219-44.442c.023-2.912.291-5.824.499-8.733.055-.771.074-1.723.517-2.248.645-.764 1.641-1.618 2.524-1.66.596-.029 1.391 1.2 1.837 2.009.294.53.164 1.312.165 1.986q.025 26.77.03 53.54 0 .27-.012.542a2.87 2.87 0 0 1-2.872 2.727m-75.514.221a2.383 2.383 0 0 1-2.38-2.232C44.28 52 42.385 32.861 43.052 13.513a1.956 1.956 0 0 1 3.243-1.396c.356.313.585.745.646 1.215 1.164 8.954 3.404 47.549 3.383 57.786a2.39 2.39 0 0 1-2.39 2.389m28.271.575a2.364 2.364 0 0 1-2.297-1.837q-.262-1.042-.345-2.113c-.358-6.038-.812-12.076-.881-18.114-.137-11.88-.05-23.76-.034-35.64 0-.467.023-.934.056-1.397a2.706 2.706 0 0 1 2.834-2.573c1.145.094 1.41.943 1.505 3.042.426 9.509.819 19.02 1.09 28.534.255 8.958.35 17.918.48 26.881q.005.565-.065 1.125a2.36 2.36 0 0 1-2.343 2.092m37.284-.64a2.33 2.33 0 0 1-2.326-2.195c-.193-3.174-.41-6.325-.487-9.48a4500 4500 0 0 1-.744-36c-.069-3.919-.083-7.844.065-11.76a3.13 3.13 0 0 1 1.4-2.31c1.479-.726 2.564.23 2.713 2.276.293 4.024.591 8.052.714 12.083q.626 20.175 1.112 40.356c.04 1.59-.04 3.184-.119 4.81a2.33 2.33 0 0 1-2.328 2.22M12.857 72.76a2.607 2.607 0 0 1-2.598-2.321q-.078-.681-.078-1.367.202-27.06.465-54.12c.004-.447-.132-1.004.077-1.32.443-.664 1.05-1.633 1.641-1.666.568-.03 2.297.89 2.392 1.505.464 3.093.227 6.22.275 9.34.235 15.347.348 30.696.484 46.045.005.475-.016.95-.046 1.444a2.62 2.62 0 0 1-2.612 2.46m75.023-3.272c-.018 3.171-.766 4.317-2.574 4.222-1.663-.087-2.277-1.15-2.35-4.124-.303-12.536-.573-25.072-.918-37.608-.144-5.258-.483-10.51-.64-15.768-.043-1.452-.604-3.369 1.707-3.747 1.416-.231 2.315 1.001 2.486 3.69q.885 13.902 1.608 27.815c.131 2.453.714 19.474.68 25.52m19.189-1.444a17 17 0 0 1-.362 2.996c-.245 1.27-1.091 2.17-2.355 1.781a3.19 3.19 0 0 1-1.881-1.933 28 28 0 0 1-.533-5.35q-.536-14.3-1.003-28.602-.34-9.926-.647-19.85a6.2 6.2 0 0 1 .216-2.654 2.71 2.71 0 0 1 1.833-1.49c.673-.015 1.57.712 1.988 1.359.386.596.321 1.515.363 2.297.754 14.004 2.427 48.306 2.381 51.446m27.229 3.155a1.99 1.99 0 0 1-1.556 1.782c-2.366.558-3.237-.591-3.193-3.665.255-17.288.412-34.576.615-51.865a14 14 0 0 1 .263-3.671c.197-.687 1.285-1.72 1.701-1.607a2.97 2.97 0 0 1 1.903 1.8c.266 1.888.376 3.795.328 5.7.169 12.35.378 24.698.436 37.047.022 4.821-.308 9.644-.5 14.466zm7.574-29.749c0 8.636-.015 17.272.009 25.908.007 3.024-.499 4.09-2.177 4.206-1.844.127-2.78-1.116-2.785-4.088q-.041-21.701.028-43.4c.014-2.795.383-5.59.664-8.377.042-.895.283-1.77.705-2.56a2.38 2.38 0 0 1 1.826-1.037 2.35 2.35 0 0 1 1.468 1.447 8.6 8.6 0 0 1 .17 2.667q.013 12.618.005 25.236zM69.478 74.173a2.054 2.054 0 0 1-2.051-1.92 212 212 0 0 0-.234-3.335c-.651-8.044-1.454-16.08-1.937-24.133-.577-9.629-.887-19.274-1.305-28.912a6.4 6.4 0 0 1 .05-2.336c.24-.792.777-1.46 1.499-1.865 1.16-.403 1.85.483 2.104 1.593q.352 1.298.474 2.638c.548 11.092.97 22.19 1.626 33.276.43 7.274 1.2 14.527 1.792 21.79.031.38.04.762.038 1.16a2.057 2.057 0 0 1-2.056 2.044m75.314-57.56q0-.842.009-1.682c.011-1.406.119-2.99 1.927-2.935 1.821.055 1.751 1.707 1.788 3.07q.694 25.202 1.379 50.406c.036 1.12-.02 2.241-.166 3.352-.169 1.21-.802 2.112-2.187 2.105-1.43-.008-1.951-.96-2.035-2.195-.19-2.908-.425-5.82-.459-8.73-.064-6.387-.257-35.316-.256-43.391"/><path fill="#000" d="M152.481 75.964c-.191-3.311-.475-6.308-.499-9.307-.048-2.112.155-4.22.603-6.285a3.25 3.25 0 0 1 2.254-1.994c1.37-.14 1.51 1.222 1.651 2.408.565 4.66 1.299 9.305 1.824 13.971.544 4.848-.861 6.295-5.63 6.498-3.908.165-7.81.554-11.71.845-1.004.075-2.006.176-3.01.222-1.222.057-2.322-.23-2.462-1.663-.131-1.346.772-2.115 1.962-2.327 4.069-.721 8.15-1.352 12.229-2.007.759-.124 1.526-.2 2.788-.361M6.227 80.466c3.363 0 6.705-.042 10.045.02a13.4 13.4 0 0 1 4.292.505c.84.307 1.894 1.495 1.878 2.267-.017.806-1.09 1.752-1.918 2.322-.572.394-1.51.333-2.288.338-4.14.023-8.283.073-12.422-.02-3.952-.089-5.222-1.389-5.293-5.285C.459 77.257.489 73.9.514 70.542c.01-1.437-.197-3.1 1.854-3.363C3.755 67 4.65 68.23 4.9 70.527c.28 2.556.48 5.12.76 7.676q.215 1.148.566 2.263M152.289 5.209c-3.383-.127-6.826-.263-10.27-.383a30 30 0 0 0-1.681 0c-1.283.019-2.665-.01-2.742-1.693-.074-1.633 1.379-2.008 2.567-2.096 2.114-.158 4.249-.028 6.376-.024 2.344.004 4.689.065 7.031-.013 2.538-.085 4.044.788 4.143 3.272.204 5.14.077 10.292.043 15.44-.004.534-.143 1.893-.487 2.243a3.92 3.92 0 0 1-2.47 1.109c-.566.065-1.682-1.122-1.87-1.91a27.8 27.8 0 0 1-.616-5.63c-.089-3.235-.024-6.472-.024-10.315M6.022 7.286c-.402 4.114-.753 7.668-1.093 11.223-.086.893.047 1.864-.27 2.661l-.008.021a1.796 1.796 0 0 1-3.226.054 4.4 4.4 0 0 1-.197-1.986c.04-3.814.057-7.63.18-11.442.1-3.08 1.29-4.606 4.33-5.038 4.21-.597 8.463-.918 12.702-1.3a4.03 4.03 0 0 1 2.297.252 3.26 3.26 0 0 1 1.454 1.991 2.17 2.17 0 0 1-1.198 1.745c-1.718.458-3.472.77-5.242.932-3.106.341-6.22.573-9.73.887"/></svg>
